portal/assets/img/component/button/anatomy-button.svg

<svg width="180" height="150" viewBox="0 0 180 150" fill="none" xmlns="http://www.w3.org/2000/svg">
<path d="M0 51C0 48.2386 2.23858 46 5 46H118C120.761 46 123 48.2386 123 51V89C123 91.7614 120.761 94 118 94H5C2.23858 94 0 91.7614 0 89V51Z" fill="#5925DC"/>
<path d="M32 80.5C29.2152 80.5 26.5445 79.3938 24.5754 77.4246C22.6062 75.4555 21.5 72.7848 21.5 70C21.5 67.2152 22.6062 64.5445 24.5754 62.5754C26.5445 60.6062 29.2152 59.5 32 59.5C34.7848 59.5 37.4555 60.6062 39.4246 62.5754C41.3938 64.5445 42.5 67.2152 42.5 70C42.5 72.7848 41.3938 75.4555 39.4246 77.4246C37.4555 79.3938 34.7848 80.5 32 80.5ZM32 82C35.1826 82 38.2348 80.7357 40.4853 78.4853C42.7357 76.2348 44 73.1826 44 70C44 66.8174 42.7357 63.7652 40.4853 61.5147C38.2348 59.2643 35.1826 58 32 58C28.8174 58 25.7652 59.2643 23.5147 61.5147C21.2643 63.7652 20 66.8174 20 70C20 73.1826 21.2643 76.2348 23.5147 78.4853C25.7652 80.7357 28.8174 82 32 82Z" fill="white"/>
<path d="M32 64C32.1989 64 32.3897 64.079 32.5303 64.2197C32.671 64.3603 32.75 64.5511 32.75 64.75V69.25H37.25C37.4489 69.25 37.6397 69.329 37.7803 69.4697C37.921 69.6103 38 69.8011 38 70C38 70.1989 37.921 70.3897 37.7803 70.5303C37.6397 70.671 37.4489 70.75 37.25 70.75H32.75V75.25C32.75 75.4489 32.671 75.6397 32.5303 75.7803C32.3897 75.921 32.1989 76 32 76C31.8011 76 31.6103 75.921 31.4697 75.7803C31.329 75.6397 31.25 75.4489 31.25 75.25V70.75H26.75C26.5511 70.75 26.3603 70.671 26.2197 70.5303C26.079 70.3897 26 70.1989 26 70C26 69.8011 26.079 69.6103 26.2197 69.4697C26.3603 69.329 26.5511 69.25 26.75 69.25H31.25V64.75C31.25 64.5511 31.329 64.3603 31.4697 64.2197C31.6103 64.079 31.8011 64 32 64Z" fill="white"/>
<path d="M57.8388 76V64.3636H61.907C62.7176 64.3636 63.3861 64.5038 63.9126 64.7841C64.4392 65.0606 64.8312 65.4337 65.0888 65.9034C65.3464 66.3693 65.4751 66.8864 65.4751 67.4545C65.4751 67.9545 65.3861 68.3674 65.2081 68.6932C65.0339 69.0189 64.8028 69.2765 64.5149 69.4659C64.2308 69.6553 63.9221 69.7955 63.5888 69.8864V70C63.9448 70.0227 64.3028 70.1477 64.6626 70.375C65.0225 70.6023 65.3236 70.928 65.5661 71.3523C65.8085 71.7765 65.9297 72.2955 65.9297 72.9091C65.9297 73.4924 65.7971 74.017 65.532 74.483C65.2668 74.9489 64.8482 75.3182 64.2763 75.5909C63.7043 75.8636 62.96 76 62.0433 76H57.8388ZM59.2479 74.75H62.0433C62.9638 74.75 63.6172 74.572 64.0036 74.2159C64.3937 73.8561 64.5888 73.4205 64.5888 72.9091C64.5888 72.5152 64.4884 72.1515 64.2876 71.8182C64.0869 71.4811 63.8009 71.2121 63.4297 71.0114C63.0585 70.8068 62.6191 70.7045 62.1115 70.7045H59.2479V74.75ZM59.2479 69.4773H61.8615C62.2857 69.4773 62.6683 69.3939 63.0092 69.2273C63.3539 69.0606 63.6267 68.8258 63.8274 68.5227C64.032 68.2197 64.1342 67.8636 64.1342 67.4545C64.1342 66.9432 63.9562 66.5095 63.6001 66.1534C63.2441 65.7936 62.6797 65.6136 61.907 65.6136H59.2479V69.4773ZM73.5632 72.4318V67.2727H74.9041V76H73.5632V74.5227H73.4723C73.2678 74.9659 72.9496 75.3428 72.5178 75.6534C72.0859 75.9602 71.5405 76.1136 70.8814 76.1136C70.3359 76.1136 69.8511 75.9943 69.4268 75.7557C69.0026 75.5133 68.6693 75.1496 68.4268 74.6648C68.1844 74.1761 68.0632 73.5606 68.0632 72.8182V67.2727H69.4041V72.7273C69.4041 73.3636 69.5821 73.8712 69.9382 74.25C70.2981 74.6288 70.7564 74.8182 71.3132 74.8182C71.6465 74.8182 71.9856 74.733 72.3303 74.5625C72.6787 74.392 72.9704 74.1307 73.2053 73.7784C73.4439 73.4261 73.5632 72.9773 73.5632 72.4318ZM81.1555 67.2727V68.4091H76.6328V67.2727H81.1555ZM77.951 65.1818H79.2919V73.5C79.2919 73.8788 79.3468 74.1629 79.4567 74.3523C79.5703 74.5379 79.7143 74.6629 79.8885 74.7273C80.0665 74.7879 80.254 74.8182 80.451 74.8182C80.5987 74.8182 80.7199 74.8106 80.8146 74.7955C80.9093 74.7765 80.9851 74.7614 81.0419 74.75L81.3146 75.9545C81.2237 75.9886 81.0968 76.0227 80.9339 76.0568C80.7711 76.0947 80.5646 76.1136 80.3146 76.1136C79.9358 76.1136 79.5646 76.0322 79.201 75.8693C78.8411 75.7064 78.5419 75.4583 78.3033 75.125C78.0684 74.7917 77.951 74.3712 77.951 73.8636V65.1818ZM86.968 67.2727V68.4091H82.4453V67.2727H86.968ZM83.7635 65.1818H85.1044V73.5C85.1044 73.8788 85.1593 74.1629 85.2692 74.3523C85.3828 74.5379 85.5268 74.6629 85.701 74.7273C85.879 74.7879 86.0665 74.8182 86.2635 74.8182C86.4112 74.8182 86.5324 74.8106 86.6271 74.7955C86.7218 74.7765 86.7976 74.7614 86.8544 74.75L87.1271 75.9545C87.0362 75.9886 86.9093 76.0227 86.7464 76.0568C86.5836 76.0947 86.3771 76.1136 86.1271 76.1136C85.7483 76.1136 85.3771 76.0322 85.0135 75.8693C84.6536 75.7064 84.3544 75.4583 84.1158 75.125C83.8809 74.7917 83.7635 74.3712 83.7635 73.8636V65.1818ZM92.4368 76.1818C91.6489 76.1818 90.9576 75.9943 90.3629 75.6193C89.772 75.2443 89.3099 74.7197 88.9766 74.0455C88.647 73.3712 88.4822 72.5833 88.4822 71.6818C88.4822 70.7727 88.647 69.9792 88.9766 69.3011C89.3099 68.6231 89.772 68.0966 90.3629 67.7216C90.9576 67.3466 91.6489 67.1591 92.4368 67.1591C93.2247 67.1591 93.9141 67.3466 94.505 67.7216C95.0997 68.0966 95.5618 68.6231 95.8913 69.3011C96.2247 69.9792 96.3913 70.7727 96.3913 71.6818C96.3913 72.5833 96.2247 73.3712 95.8913 74.0455C95.5618 74.7197 95.0997 75.2443 94.505 75.6193C93.9141 75.9943 93.2247 76.1818 92.4368 76.1818ZM92.4368 74.9773C93.0353 74.9773 93.5277 74.8239 93.9141 74.517C94.3004 74.2102 94.5864 73.8068 94.772 73.3068C94.9576 72.8068 95.0504 72.2652 95.0504 71.6818C95.0504 71.0985 94.9576 70.5549 94.772 70.0511C94.5864 69.5473 94.3004 69.1402 93.9141 68.8295C93.5277 68.5189 93.0353 68.3636 92.4368 68.3636C91.8383 68.3636 91.3459 68.5189 90.9595 68.8295C90.5732 69.1402 90.2872 69.5473 90.1016 70.0511C89.916 70.5549 89.8232 71.0985 89.8232 71.6818C89.8232 72.2652 89.916 72.8068 90.1016 73.3068C90.2872 73.8068 90.5732 74.2102 90.9595 74.517C91.3459 74.8239 91.8383 74.9773 92.4368 74.9773ZM99.7791 70.75V76H98.4382V67.2727H99.7337V68.6364H99.8473C100.052 68.1932 100.362 67.8371 100.779 67.5682C101.196 67.2955 101.734 67.1591 102.393 67.1591C102.984 67.1591 103.501 67.2803 103.944 67.5227C104.387 67.7614 104.732 68.125 104.978 68.6136C105.224 69.0985 105.347 69.7121 105.347 70.4545V76H104.006V70.5455C104.006 69.8598 103.828 69.3258 103.472 68.9432C103.116 68.5568 102.628 68.3636 102.006 68.3636C101.578 68.3636 101.196 68.4564 100.859 68.642C100.525 68.8277 100.262 69.0985 100.069 69.4545C99.8757 69.8106 99.7791 70.2424 99.7791 70.75Z" fill="white"/>
<circle cx="168" cy="70" r="12" fill="#344054"/>
<path d="M163.943 76V74.2273L168.085 70.392C168.438 70.0511 168.733 69.7443 168.972 69.4716C169.214 69.1989 169.398 68.9318 169.523 68.6705C169.648 68.4053 169.71 68.1193 169.71 67.8125C169.71 67.4716 169.633 67.178 169.477 66.9318C169.322 66.6818 169.11 66.4905 168.841 66.358C168.572 66.2216 168.267 66.1534 167.926 66.1534C167.57 66.1534 167.259 66.2254 166.994 66.3693C166.729 66.5133 166.525 66.7197 166.381 66.9886C166.237 67.2576 166.165 67.5777 166.165 67.9489H163.83C163.83 67.1875 164.002 66.5265 164.347 65.9659C164.691 65.4053 165.174 64.9716 165.795 64.6648C166.417 64.358 167.133 64.2045 167.943 64.2045C168.777 64.2045 169.502 64.3523 170.119 64.6477C170.741 64.9394 171.223 65.3447 171.568 65.8636C171.913 66.3826 172.085 66.9773 172.085 67.6477C172.085 68.0871 171.998 68.5208 171.824 68.9489C171.653 69.3769 171.348 69.8523 170.909 70.375C170.47 70.8939 169.85 71.517 169.051 72.2443L167.352 73.9091V73.9886H172.239V76H163.943Z" fill="white"/>
<path d="M159 70L107 70.5" stroke="#344054" stroke-dasharray="2 2"/>
<circle cx="79" cy="16" r="12" fill="#344054"/>
<path d="M81.0057 10.3636V22H78.5455V12.6989H78.4773L75.8125 14.3693V12.1875L78.6932 10.3636H81.0057Z" fill="white"/>
<path d="M76 16H32V58" stroke="#344054" stroke-dasharray="2 2"/>
<circle cx="79" cy="134" r="12" fill="#344054"/>
<path d="M79.2443 140.159C78.3958 140.159 77.6402 140.013 76.9773 139.722C76.3182 139.426 75.7973 139.021 75.4148 138.506C75.036 137.987 74.8409 137.388 74.8295 136.71H77.3068C77.322 136.994 77.4148 137.244 77.5852 137.46C77.7595 137.672 77.9905 137.837 78.2784 137.955C78.5663 138.072 78.8902 138.131 79.25 138.131C79.625 138.131 79.9564 138.064 80.2443 137.932C80.5322 137.799 80.7576 137.616 80.9205 137.381C81.0833 137.146 81.1648 136.875 81.1648 136.568C81.1648 136.258 81.0777 135.983 80.9034 135.744C80.733 135.502 80.4867 135.312 80.1648 135.176C79.8466 135.04 79.4678 134.972 79.0284 134.972H77.9432V133.165H79.0284C79.3996 133.165 79.7273 133.1 80.0114 132.972C80.2992 132.843 80.5227 132.665 80.6818 132.438C80.8409 132.206 80.9205 131.938 80.9205 131.631C80.9205 131.339 80.8504 131.083 80.7102 130.864C80.5739 130.64 80.3807 130.466 80.1307 130.341C79.8845 130.216 79.5966 130.153 79.267 130.153C78.9337 130.153 78.6288 130.214 78.3523 130.335C78.0758 130.453 77.8542 130.621 77.6875 130.841C77.5208 131.061 77.4318 131.318 77.4205 131.614H75.0625C75.0739 130.943 75.2652 130.352 75.6364 129.841C76.0076 129.33 76.5076 128.93 77.1364 128.642C77.7689 128.35 78.483 128.205 79.2784 128.205C80.0814 128.205 80.7841 128.35 81.3864 128.642C81.9886 128.934 82.4564 129.328 82.7898 129.824C83.1269 130.316 83.2936 130.869 83.2898 131.483C83.2936 132.134 83.0909 132.678 82.6818 133.114C82.2765 133.549 81.7481 133.826 81.0966 133.943V134.034C81.9527 134.144 82.6042 134.441 83.0511 134.926C83.5019 135.407 83.7254 136.009 83.7216 136.733C83.7254 137.396 83.5341 137.985 83.1477 138.5C82.7652 139.015 82.2367 139.42 81.5625 139.716C80.8883 140.011 80.1155 140.159 79.2443 140.159Z" fill="white"/>
<path d="M76 134H32V94" stroke="#344054" stroke-dasharray="2 2"/>
</svg>

<svg width="180" height="150" viewBox="0 0 180 150" fill="none" xmlns="http://www.w3.org/2000/svg"><path d="M0 51a5 5 0 0 1 5-5h113a5 5 0 0 1 5 5v38a5 5 0 0 1-5 5H5a5 5 0 0 1-5-5V51Z" fill="#5925DC"/><path d="M32 80.5a10.5 10.5 0 1 1 0-21 10.5 10.5 0 0 1 0 21Zm0 1.5a12 12 0 1 0 0-24 12 12 0 0 0 0 24Z" fill="#fff"/><path d="M32 64a.75.75 0 0 1 .75.75v4.5h4.5a.75.75 0 1 1 0 1.5h-4.5v4.5a.75.75 0 1 1-1.5 0v-4.5h-4.5a.75.75 0 1 1 0-1.5h4.5v-4.5A.75.75 0 0 1 32 64Zm25.839 12V64.364h4.068c.81 0 1.48.14 2.006.42.526.277.918.65 1.176 1.12.257.465.386.982.386 1.55 0 .5-.089.913-.267 1.24a2.077 2.077 0 0 1-.693.772c-.284.19-.593.33-.926.42V70c.356.023.714.148 1.074.375.36.227.66.553.903.977.242.424.364.944.364 1.557 0 .583-.133 1.108-.398 1.574-.265.466-.684.835-1.256 1.108-.572.273-1.316.409-2.233.409H57.84Zm1.409-1.25h2.795c.92 0 1.574-.178 1.96-.534.39-.36.586-.795.586-1.307 0-.394-.1-.758-.301-1.09a2.178 2.178 0 0 0-.858-.808c-.371-.204-.81-.306-1.319-.306h-2.863v4.045Zm0-5.273h2.614a2.58 2.58 0 0 0 1.147-.25c.345-.166.618-.401.818-.704.205-.303.307-.66.307-1.069a1.77 1.77 0 0 0-.534-1.3c-.356-.36-.92-.54-1.693-.54h-2.66v3.863Zm14.315 2.955v-5.16h1.341V76h-1.34v-1.477h-.092c-.204.443-.522.82-.954 1.13-.432.307-.978.46-1.637.46-.545 0-1.03-.119-1.454-.357-.424-.243-.758-.606-1-1.091-.243-.489-.364-1.104-.364-1.847v-5.545h1.341v5.454c0 .637.178 1.144.534 1.523.36.379.818.568 1.375.568.334 0 .673-.085 1.017-.255.349-.171.64-.432.875-.785.239-.352.358-.8.358-1.346Zm7.593-5.16v1.137h-4.523v-1.136h4.523Zm-3.205-2.09h1.34V73.5c0 .379.056.663.166.852.113.186.257.31.431.375.178.06.366.091.563.091.148 0 .269-.007.364-.022l.227-.046.273 1.204a2.587 2.587 0 0 1-.381.103 2.8 2.8 0 0 1-.62.057c-.378 0-.75-.082-1.113-.245a2.212 2.212 0 0 1-.898-.744c-.235-.333-.352-.754-.352-1.261v-8.682Zm9.017 2.09v1.137h-4.523v-1.136h4.523Zm-3.205-2.09h1.341V73.5c0 .379.055.663.165.852.114.186.258.31.432.375.178.06.366.091.563.091.147 0 .268-.007.363-.022l.227-.046.273 1.204c-.09.035-.218.069-.38.103a2.8 2.8 0 0 1-.62.057 2.7 2.7 0 0 1-1.114-.245 2.212 2.212 0 0 1-.897-.744c-.235-.333-.353-.754-.353-1.261v-8.682Zm8.674 11c-.788 0-1.48-.188-2.074-.563-.591-.375-1.053-.9-1.386-1.573-.33-.675-.495-1.463-.495-2.364 0-.91.165-1.703.495-2.38.333-.679.795-1.205 1.386-1.58.595-.375 1.286-.563 2.074-.563.788 0 1.477.188 2.068.563.595.375 1.057.901 1.386 1.58.334.677.5 1.47.5 2.38 0 .901-.166 1.69-.5 2.364a3.769 3.769 0 0 1-1.386 1.573c-.59.375-1.28.563-2.068.563Zm0-1.205c.598 0 1.09-.153 1.477-.46a2.72 2.72 0 0 0 .858-1.21c.186-.5.278-1.042.278-1.625 0-.584-.092-1.127-.278-1.63a2.75 2.75 0 0 0-.858-1.223c-.386-.31-.879-.465-1.477-.465-.599 0-1.091.155-1.477.465a2.75 2.75 0 0 0-.858 1.222 4.681 4.681 0 0 0-.279 1.63c0 .584.093 1.126.279 1.626.185.5.471.903.858 1.21.386.307.878.46 1.477.46Zm7.342-4.227V76h-1.34v-8.727h1.295v1.363h.113c.205-.443.515-.799.932-1.068.417-.272.955-.409 1.614-.409.591 0 1.108.121 1.551.364a2.45 2.45 0 0 1 1.034 1.09c.246.486.369 1.1.369 1.841V76h-1.341v-5.454c0-.686-.178-1.22-.534-1.603-.356-.386-.844-.58-1.466-.58-.428 0-.81.093-1.147.279a1.988 1.988 0 0 0-.79.813c-.193.356-.29.787-.29 1.295Z" fill="#fff"/><circle cx="168" cy="70" r="12" fill="#344054"/><path d="M163.943 76v-1.773l4.142-3.835c.353-.34.648-.648.887-.92.242-.273.426-.54.551-.801.125-.266.187-.552.187-.859 0-.34-.077-.634-.233-.88a1.526 1.526 0 0 0-.636-.574 1.995 1.995 0 0 0-.915-.205c-.356 0-.667.072-.932.216-.265.144-.469.35-.613.62-.144.269-.216.589-.216.96h-2.335c0-.761.172-1.422.517-1.983.344-.56.827-.994 1.448-1.301.622-.307 1.338-.46 2.148-.46.834 0 1.559.147 2.176.443.622.291 1.104.697 1.449 1.216s.517 1.113.517 1.784c0 .44-.087.873-.261 1.3-.171.429-.476.904-.915 1.427-.439.519-1.059 1.142-1.858 1.87l-1.699 1.664v.08h4.887V76h-8.296Z" fill="#fff"/><path d="m159 70-52 .5" stroke="#344054" stroke-dasharray="2 2"/><circle cx="79" cy="16" r="12" fill="#344054"/><path d="M81.006 10.364V22h-2.46v-9.301h-.069l-2.665 1.67v-2.181l2.881-1.824h2.313Z" fill="#fff"/><path d="M76 16H32v42" stroke="#344054" stroke-dasharray="2 2"/><circle cx="79" cy="134" r="12" fill="#344054"/><path d="M79.244 140.159c-.848 0-1.604-.146-2.267-.437-.659-.296-1.18-.701-1.562-1.216a3.058 3.058 0 0 1-.586-1.796h2.478c.015.284.108.534.278.75.175.212.406.377.693.495.288.117.612.176.972.176.375 0 .706-.067.994-.199.288-.133.514-.316.677-.551.162-.235.244-.506.244-.813 0-.31-.087-.585-.262-.824a1.67 1.67 0 0 0-.738-.568c-.318-.136-.697-.204-1.137-.204h-1.085v-1.807h1.085c.372 0 .7-.065.983-.193a1.58 1.58 0 0 0 .67-.534c.16-.232.24-.5.24-.807 0-.292-.07-.548-.21-.767a1.385 1.385 0 0 0-.58-.523 1.884 1.884 0 0 0-.864-.188c-.333 0-.638.061-.915.182a1.603 1.603 0 0 0-.665.506 1.33 1.33 0 0 0-.266.773h-2.359a3.029 3.029 0 0 1 .574-1.773c.372-.511.872-.911 1.5-1.199.633-.292 1.347-.437 2.142-.437.803 0 1.506.145 2.108.437.603.292 1.07.686 1.404 1.182.337.492.504 1.045.5 1.659.004.651-.2 1.195-.608 1.631-.406.435-.934.712-1.585.829v.091c.856.11 1.507.407 1.954.892.45.481.674 1.083.67 1.807a2.838 2.838 0 0 1-.573 1.767c-.383.515-.911.92-1.585 1.216-.675.295-1.448.443-2.319.443Z" fill="#fff"/><path d="M76 134H32V94" stroke="#344054" stroke-dasharray="2 2"/></svg>
